src/symbolic/status/user-trash-full-symbolic.svg

<svg xmlns="http://www.w3.org/2000/svg" width="16" height="16"><path d="M1 5v3c0 1 .06 2.15.2 3 .14.85.8 3 .8 3s.48 1 1 1h9c.52 0 1-1 1-1s.66-2.15.8-3c.14-.85.2-2 .2-3V5zM1 3v1h13V3c0-1-1-1-1-1h-3s0-1-1-1H6C5 1 5 2 5 2H2S1 2 1 3z" fill="#444"/></svg>

<svg xmlns="http://www.w3.org/2000/svg" width="16" height="16" version="1.1">
 <path style="fill:#444444" d="M 1,5 V 8 C 1,9 1.06,10.15 1.2,11 1.34,11.85 2,14 2,14 2,14 2.48,15 3,15 H 12 C 12.52,15 13,14 13,14 13,14 13.66,11.85 13.8,11 13.94,10.15 14,9 14,8 V 5 Z"/>
 <path style="fill:#444444" d="M 1,3 V 4 H 14 V 3 C 14,2 13,2 13,2 H 10 C 10,2 10,1 9,1 H 6 C 5,1 5,2 5,2 H 2 C 2,2 1,2 1,3 Z"/>
</svg>
